img/pizza-logo.svg

<svg width="32" height="32" viewBox="0 0 32 32" fill="none" xmlns="http://www.w3.org/2000/svg">
<path d="M31.814 0.180314C31.6432 0.0118144 31.3908 -0.0444355 31.165 0.0364394L5.20549 9.29248C4.30361 8.74098 3.15968 8.61186 2.11049 9.0463C0.368934 9.76773 -0.461127 11.7715 0.260246 13.5132C1.96143 17.62 4.41761 21.296 7.56079 24.4392C10.704 27.5824 14.38 30.0386 18.4868 31.7397C18.9133 31.9164 19.3553 32 19.7906 32C21.1328 31.9999 22.409 31.2046 22.9536 29.8894C23.3201 29.0046 23.2855 28.0522 22.9349 27.2344L31.9662 0.827375C32.0439 0.600376 31.9847 0.348876 31.814 0.180314ZM9.1361 9.21805L11.8873 8.23717C12.2103 8.5813 12.3678 9.05505 12.3047 9.53417C12.2491 9.95604 12.0326 10.3311 11.695 10.5902C11.3575 10.8492 10.9395 10.9612 10.5173 10.9057C10.0955 10.8502 9.72048 10.6337 9.46142 10.2961C9.22273 9.98504 9.10917 9.60555 9.1361 9.21805ZM21.7988 29.411C21.3411 30.5159 20.0698 31.0424 18.9651 30.5847C10.9627 27.27 4.72999 21.0373 1.41518 13.0348C1.19349 12.4996 1.19349 11.9102 1.41518 11.3749C1.63687 10.8397 2.05368 10.4229 2.58887 10.2012C3.12405 9.97954 3.71355 9.97954 4.24874 10.2012C4.78393 10.4229 5.20074 10.8397 5.42242 11.3749C6.84123 14.8003 8.88998 17.8665 11.5117 20.4882C14.1335 23.11 17.1996 25.1586 20.625 26.5775C21.7299 27.0351 22.2565 28.3063 21.7988 29.411ZM27.3514 10.458C27.2949 10.4567 27.2383 10.4534 27.1818 10.446C26.7599 10.3905 26.3849 10.174 26.1259 9.83642C25.8669 9.49886 25.7548 9.08055 25.8103 8.65873C25.925 7.78786 26.7266 7.17274 27.5978 7.28724C27.8665 7.32261 28.1188 7.42686 28.334 7.58542L27.3514 10.458ZM28.7494 6.37018C28.4449 6.20436 28.1104 6.09393 27.7609 6.04793C26.2064 5.84274 24.7756 6.9413 24.571 8.49561C24.4719 9.24848 24.6719 9.99492 25.1342 10.5974C25.5795 11.1777 26.217 11.5569 26.9361 11.6725L25.6939 15.3049L24.2653 14.2087C23.9914 13.9987 23.599 14.0502 23.389 14.324C23.1788 14.5979 23.2305 14.9902 23.5043 15.2003L25.2671 16.553L22.0363 26.0001C21.7653 25.7645 21.4532 25.5674 21.1036 25.4226C14.4799 22.6789 9.32117 17.5202 6.57761 10.8965C6.48223 10.6662 6.36373 10.4523 6.22705 10.2553L7.90073 9.65854C7.95917 10.1628 8.15273 10.6438 8.46979 11.057C8.93204 11.6595 9.60135 12.0459 10.3542 12.1449C10.4804 12.1615 10.6061 12.1698 10.7312 12.1698C11.353 12.1698 11.9545 11.9667 12.456 11.5819C13.0586 11.1195 13.4449 10.4503 13.5441 9.69729C13.633 9.02136 13.4753 8.35186 13.1211 7.79724L20.8903 5.02712L21.1847 5.73799C21.2845 5.97868 21.5171 6.12399 21.7624 6.12399C21.8421 6.12399 21.9231 6.10861 22.0013 6.07624C22.3202 5.94418 22.4716 5.57849 22.3396 5.25962L22.0692 4.6068L30.3641 1.64919L28.7494 6.37018Z" fill="#FF7010"/>
<path d="M6.74994 16.7673C6.74806 16.7643 6.74288 16.7564 6.74088 16.7535C6.5495 16.4665 6.16219 16.3894 5.875 16.5806C5.58831 16.7715 5.51057 17.1589 5.70031 17.4461C5.82 17.63 6.02025 17.7303 6.22481 17.7303C6.34056 17.7303 6.45763 17.6981 6.56213 17.631C6.8525 17.4443 6.93656 17.0576 6.74994 16.7673Z" fill="#FF7010"/>
<path d="M5.79936 15.2145C5.1903 14.1466 4.6428 13.029 4.17212 11.8928C4.04006 11.5738 3.67424 11.4225 3.35556 11.5546C3.03662 11.6866 2.88525 12.0523 3.01737 12.3711C3.50799 13.5556 4.07874 14.7206 4.71362 15.8337C4.82893 16.0358 5.03993 16.1492 5.25705 16.1492C5.36205 16.1492 5.46849 16.1227 5.56611 16.067C5.86593 15.896 5.97043 15.5143 5.79936 15.2145Z" fill="#FF7010"/>
<path d="M19.5582 7.99923C19.4343 7.98286 19.3085 7.97461 19.1843 7.97461C17.7645 7.97461 16.5538 9.03742 16.3683 10.4468C16.1637 12.001 17.2617 13.432 18.8159 13.6367C18.9398 13.653 19.0656 13.6613 19.1898 13.6613C20.6096 13.6613 21.8202 12.5985 22.0058 11.189C22.2103 9.63479 21.1124 8.20386 19.5582 7.99923ZM20.7665 11.0259C20.6625 11.8157 19.9847 12.4112 19.1898 12.4112C19.12 12.4112 19.049 12.4066 18.9791 12.3973C18.1082 12.2827 17.493 11.4809 17.6077 10.6099C17.7117 9.82017 18.3894 9.22467 19.1843 9.22467C19.2542 9.22467 19.3251 9.22929 19.395 9.23854C20.2659 9.35329 20.8812 10.155 20.7665 11.0259Z" fill="#FF7010"/>
<path d="M19.3956 15.7732C19.2716 15.7568 19.1459 15.7485 19.0216 15.7485C17.6018 15.7485 16.3912 16.8113 16.2057 18.2208C16.1065 18.9737 16.3065 19.7201 16.7688 20.3226C17.2311 20.9251 17.9003 21.3115 18.6533 21.4107C18.7771 21.427 18.9028 21.4352 19.027 21.4352C20.4468 21.4352 21.6575 20.3724 21.8431 18.9629C22.0478 17.4088 20.9498 15.9779 19.3956 15.7732ZM20.6039 18.7998C20.4999 19.5897 19.822 20.1852 19.0271 20.1852C18.9573 20.1852 18.8864 20.1805 18.8165 20.1713C18.3946 20.1157 18.0196 19.8992 17.7606 19.5617C17.5015 19.2241 17.3895 18.8058 17.445 18.3839C17.549 17.5942 18.2268 16.9986 19.0216 16.9986C19.0915 16.9986 19.1625 17.0032 19.2324 17.0125C20.1032 17.1272 20.7185 17.929 20.6039 18.7998Z" fill="#FF7010"/>
<path d="M15.2734 13.1842L13.3524 12.9313C13.0103 12.8858 12.6962 13.1271 12.6511 13.4693C12.606 13.8115 12.8469 14.1255 13.1891 14.1705L15.1101 14.4235C15.1378 14.4272 15.1653 14.4289 15.1925 14.4289C15.5013 14.4289 15.7699 14.2 15.8113 13.8855C15.8565 13.5433 15.6156 13.2293 15.2734 13.1842Z" fill="#FF7010"/>
<path d="M14.2993 17.7964L14.1296 16.5074C14.0846 16.1651 13.7707 15.9241 13.4285 15.9693C13.0862 16.0144 12.8453 16.3283 12.8904 16.6705L13.0601 17.9595C13.1015 18.2741 13.37 18.503 13.6789 18.503C13.7061 18.503 13.7336 18.5012 13.7612 18.4976C14.1035 18.4525 14.3443 18.1386 14.2993 17.7964Z" fill="#FF7010"/>
</svg>

<svg width="32" height="32" fill="none" xmlns="http://www.w3.org/2000/svg"><path d="M31.814.18a.625.625 0 0 0-.649-.144L5.205 9.292A3.417 3.417 0 0 0 .26 13.513a33.513 33.513 0 0 0 7.3 10.926 33.511 33.511 0 0 0 10.927 7.3 3.424 3.424 0 0 0 4.467-1.85 3.408 3.408 0 0 0-.02-2.655L31.967.827a.625.625 0 0 0-.152-.647ZM9.136 9.218l2.751-.98a1.59 1.59 0 0 1-.192 2.352 1.582 1.582 0 0 1-1.178.316 1.583 1.583 0 0 1-1.056-.61 1.581 1.581 0 0 1-.325-1.078ZM21.8 29.411a2.171 2.171 0 0 1-2.834 1.174c-8.002-3.315-14.235-9.548-17.55-17.55a2.155 2.155 0 0 1 0-1.66A2.155 2.155 0 0 1 2.59 10.2a2.155 2.155 0 0 1 1.66 0c.535.222.952.639 1.173 1.174a27.95 27.95 0 0 0 6.09 9.113 27.952 27.952 0 0 0 9.113 6.09 2.171 2.171 0 0 1 1.174 2.833Zm5.552-18.953a1.582 1.582 0 0 1-1.226-.622 1.595 1.595 0 0 1 1.472-2.55c.27.037.522.14.737.3l-.983 2.872ZM28.75 6.37a2.842 2.842 0 0 0-3.615 4.227c.445.58 1.083.96 1.802 1.075l-1.242 3.633-1.429-1.096a.625.625 0 0 0-.76.991l1.762 1.353L22.037 26a3.405 3.405 0 0 0-.933-.577C14.48 22.679 9.32 17.52 6.578 10.897a3.419 3.419 0 0 0-.351-.642l1.674-.596c.058.504.252.985.569 1.398a2.824 2.824 0 0 0 2.261 1.113c.622 0 1.223-.203 1.725-.588a2.838 2.838 0 0 0 .665-3.785l7.77-2.77.294.711a.625.625 0 0 0 1.155-.478l-.27-.653 8.294-2.958L28.75 6.37Z" fill="#FF7010"/><path d="M6.75 16.767a.625.625 0 1 0 0 0ZM5.8 15.214a29.582 29.582 0 0 1-1.628-3.321.625.625 0 1 0-1.155.478 30.818 30.818 0 0 0 1.697 3.463.625.625 0 1 0 1.085-.62ZM19.558 8a2.85 2.85 0 0 0-3.19 2.448 2.846 2.846 0 0 0 2.822 3.213 2.85 2.85 0 0 0 2.816-2.472 2.846 2.846 0 0 0-2.448-3.19Zm1.209 3.026a1.596 1.596 0 0 1-1.788 1.371 1.595 1.595 0 0 1-1.371-1.787 1.596 1.596 0 0 1 1.787-1.371c.87.114 1.486.916 1.372 1.787ZM19.396 15.773a2.85 2.85 0 0 0-3.19 2.448c-.1.753.1 1.5.563 2.102a2.825 2.825 0 0 0 2.258 1.112 2.85 2.85 0 0 0 2.816-2.472 2.846 2.846 0 0 0-2.447-3.19Zm1.208 3.027a1.596 1.596 0 0 1-1.787 1.371 1.583 1.583 0 0 1-1.056-.61 1.583 1.583 0 0 1-.316-1.177 1.596 1.596 0 0 1 1.787-1.372c.871.115 1.486.917 1.372 1.788ZM15.273 13.184l-1.92-.253a.625.625 0 1 0-.164 1.24l1.921.253a.625.625 0 0 0 .163-1.24ZM14.3 17.796l-.17-1.289a.625.625 0 1 0-1.24.163l.17 1.29a.625.625 0 1 0 1.24-.164Z" fill="#FF7010"/></svg>
